dist/images/icons/shop.svg

<svg width="34" height="34" viewBox="0 0 34 34" fill="none" xmlns="http://www.w3.org/2000/svg">
<path d="M32.4062 28.1562H28.6875V17.4841C29.016 17.4166 29.3259 17.2783 29.5956 17.0789C29.8653 16.8795 30.0884 16.6238 30.2492 16.3295C30.4101 16.0352 30.505 15.7094 30.5273 15.3747C30.5495 15.0401 30.4987 14.7046 30.3782 14.3916L28.6875 9.9948V1.59375C28.6875 1.52398 28.6738 1.45489 28.6471 1.39043C28.6204 1.32597 28.5813 1.26739 28.5319 1.21806C28.4826 1.16872 28.424 1.12959 28.3596 1.1029C28.2951 1.07621 28.226 1.06248 28.1562 1.0625H5.84375C5.77398 1.06248 5.70489 1.07621 5.64043 1.1029C5.57597 1.12959 5.51739 1.16872 5.46806 1.21806C5.41872 1.26739 5.37959 1.32597 5.3529 1.39043C5.32621 1.45489 5.31248 1.52398 5.3125 1.59375V9.9948L3.6218 14.3916C3.50132 14.7046 3.45045 15.0401 3.47272 15.3747C3.49499 15.7094 3.58987 16.0352 3.75076 16.3295C3.91165 16.6238 4.1347 16.8795 4.40439 17.0789C4.67409 17.2783 4.98397 17.4166 5.3125 17.4841V28.1562H1.59375C1.52398 28.1562 1.45489 28.17 1.39043 28.1967C1.32597 28.2233 1.26739 28.2625 1.21806 28.3118C1.16872 28.3611 1.12959 28.4197 1.1029 28.4842C1.07621 28.5486 1.06248 28.6177 1.0625 28.6875V32.4062C1.06248 32.476 1.07621 32.5451 1.1029 32.6096C1.12959 32.674 1.16872 32.7326 1.21806 32.7819C1.26739 32.8313 1.32597 32.8704 1.39043 32.8971C1.45489 32.9238 1.52398 32.9375 1.59375 32.9375H32.4062C32.476 32.9375 32.5451 32.9238 32.6096 32.8971C32.674 32.8704 32.7326 32.8313 32.7819 32.7819C32.8313 32.7326 32.8704 32.674 32.8971 32.6096C32.9238 32.5451 32.9375 32.476 32.9375 32.4062V28.6875C32.9375 28.6177 32.9238 28.5486 32.8971 28.4842C32.8704 28.4197 32.8313 28.3611 32.7819 28.3118C32.7326 28.2625 32.674 28.2233 32.6096 28.1967C32.5451 28.17 32.476 28.1562 32.4062 28.1562ZM26.5625 28.1562V16.8254C26.8532 17.1267 27.2205 17.3432 27.625 17.4515V28.1562H26.5625ZM22.3125 28.6875V31.875H20.1875V28.1562H21.25C21.3909 28.1562 21.526 28.1003 21.6256 28.0006C21.7253 27.901 21.7812 27.7659 21.7812 27.625V26.0312C21.7812 25.8904 21.7253 25.7552 21.6256 25.6556C21.526 25.556 21.3909 25.5 21.25 25.5H18.0625C17.9216 25.5 17.7865 25.556 17.6869 25.6556C17.5872 25.7552 17.5313 25.8904 17.5312 26.0312V27.625C17.5313 27.7659 17.5872 27.901 17.6869 28.0006C17.7865 28.1003 17.9216 28.1562 18.0625 28.1562H19.125V31.875H17V28.6875C17 28.6177 16.9863 28.5486 16.9596 28.4842C16.9329 28.4197 16.8938 28.3611 16.8444 28.3118C16.7951 28.2625 16.7365 28.2233 16.6721 28.1967C16.6076 28.17 16.5385 28.1562 16.4688 28.1562H15.4062V26.5625C15.4063 26.4927 15.3925 26.4236 15.3658 26.3592C15.3392 26.2947 15.3 26.2361 15.2507 26.1868C15.2014 26.1375 15.1428 26.0983 15.0783 26.0717C15.0139 26.045 14.9448 26.0312 14.875 26.0312H13.8125V17.4828C14.3275 17.3762 14.7907 17.0969 15.1254 16.6912C15.1579 16.7317 15.1924 16.7709 15.2289 16.8094C15.444 17.0384 15.7039 17.2207 15.9925 17.3449C16.2811 17.4691 16.5922 17.5325 16.9064 17.5312H17.0936C17.4078 17.5325 17.7189 17.4691 18.0075 17.3449C18.2961 17.2207 18.556 17.0384 18.771 16.8094C18.8076 16.7709 18.8421 16.7317 18.8746 16.6912C18.9514 16.7837 19.0351 16.8701 19.125 16.9497V18.5938C18.4207 18.5945 17.7455 18.8745 17.2475 19.3725C16.7495 19.8705 16.4695 20.5457 16.4687 21.25C16.4687 21.3198 16.4825 21.3889 16.5091 21.4533C16.5358 21.5178 16.575 21.5764 16.6243 21.6257C16.6736 21.675 16.7322 21.7142 16.7967 21.7408C16.8611 21.7675 16.9302 21.7813 17 21.7812H22.3125C22.3823 21.7813 22.4514 21.7675 22.5158 21.7408C22.5803 21.7142 22.6389 21.675 22.6882 21.6257C22.7375 21.5764 22.7767 21.5178 22.8033 21.4533C22.83 21.3889 22.8438 21.3198 22.8437 21.25C22.843 20.5457 22.563 19.8705 22.065 19.3725C21.567 18.8745 20.8918 18.5945 20.1875 18.5938V17.4828C20.3419 17.5151 20.4992 17.5314 20.657 17.5312H20.823C21.1583 17.5315 21.4896 17.4587 21.7938 17.3178C22.0981 17.177 22.368 16.9716 22.5848 16.7158C22.5987 16.6998 22.612 16.6832 22.6246 16.6666C22.841 16.9373 23.1157 17.1557 23.4282 17.3054C23.7407 17.4551 24.083 17.5323 24.4295 17.5312H24.5325C24.8663 17.5319 25.1964 17.4603 25.5 17.3214V26.0312H24.4375C24.3677 26.0312 24.2986 26.045 24.2342 26.0717C24.1697 26.0983 24.1111 26.1375 24.0618 26.1868C24.0125 26.2361 23.9733 26.2947 23.9467 26.3592C23.92 26.4236 23.9062 26.4927 23.9062 26.5625V28.1562H22.8438C22.774 28.1562 22.7049 28.17 22.6404 28.1967C22.576 28.2233 22.5174 28.2625 22.4681 28.3118C22.4187 28.3611 22.3796 28.4197 22.3529 28.4842C22.3262 28.5486 22.3125 28.6177 22.3125 28.6875ZM18.5938 27.0938V26.5625H20.7188V27.0938H18.5938ZM8.26359 14.8929L9.43633 10.625H11.5925L10.8016 15.4242C10.7543 15.7163 10.6043 15.982 10.3786 16.1735C10.153 16.3649 9.86642 16.4696 9.57047 16.4688H9.46754C9.27573 16.4687 9.08651 16.4244 8.91458 16.3393C8.74265 16.2543 8.59263 16.1308 8.47618 15.9783C8.35973 15.8259 8.27997 15.6487 8.2431 15.4605C8.20623 15.2722 8.21324 15.078 8.26359 14.8929ZM8.5 17.3214C8.80362 17.4603 9.13367 17.5319 9.46754 17.5312H9.57047C9.917 17.5323 10.2593 17.4551 10.5718 17.3054C10.8843 17.1557 11.159 16.9373 11.3754 16.6666C11.388 16.6832 11.4013 16.6998 11.4152 16.7158C11.7578 17.12 12.2292 17.3939 12.75 17.4914V20.1875H8.5V17.3214ZM13.177 16.4688C12.9959 16.4688 12.817 16.4295 12.6526 16.3534C12.4883 16.2774 12.3425 16.1665 12.2253 16.0284C12.1082 15.8903 12.0225 15.7284 11.9742 15.5539C11.926 15.3794 11.9163 15.1964 11.9458 15.0178L12.6696 10.625H14.8451L14.5888 15.2894C14.5713 15.608 14.4324 15.9077 14.2007 16.1271C13.969 16.3465 13.6621 16.4687 13.343 16.4688H13.177ZM17.9994 16.0789C17.8832 16.2025 17.7429 16.3009 17.587 16.368C17.4312 16.4351 17.2633 16.4694 17.0936 16.4688H16.9064C16.7371 16.4687 16.5695 16.4342 16.4139 16.3674C16.2584 16.3005 16.118 16.2027 16.0015 16.0799C15.8849 15.9571 15.7946 15.8118 15.736 15.653C15.6774 15.4941 15.6517 15.325 15.6606 15.1559L15.909 10.625H18.0911L18.3394 15.1526V15.1559C18.3491 15.3248 18.3239 15.494 18.2654 15.6528C18.207 15.8116 18.1164 15.9566 17.9994 16.0789ZM19.4112 15.2894L19.1549 10.625H21.3304L22.0542 15.0178C22.0837 15.1964 22.0741 15.3794 22.0258 15.5539C21.9775 15.7284 21.8918 15.8903 21.7747 16.0284C21.6575 16.1665 21.5117 16.2774 21.3474 16.3534C21.183 16.4295 21.0041 16.4688 20.823 16.4688H20.657C20.3379 16.4687 20.031 16.3465 19.7993 16.1271C19.5676 15.9077 19.4287 15.608 19.4112 15.2894V15.2894ZM20.1875 19.6562C20.517 19.6566 20.8383 19.759 21.1074 19.9492C21.3764 20.1394 21.58 20.4082 21.6903 20.7188H17.6222C17.7325 20.4082 17.9361 20.1394 18.2051 19.9492C18.4742 19.759 18.7955 19.6566 19.125 19.6562H20.1875ZM25.5246 15.9774C25.4087 16.1306 25.2587 16.2548 25.0865 16.3401C24.9143 16.4254 24.7246 16.4694 24.5325 16.4688H24.4295C24.1336 16.4696 23.847 16.3649 23.6214 16.1735C23.3957 15.982 23.2457 15.7163 23.1984 15.4242L22.4075 10.625H24.5637L25.7357 14.8903C25.7357 14.8909 25.7364 14.8923 25.7364 14.8929C25.7874 15.0778 25.7947 15.2719 25.758 15.46C25.7212 15.6482 25.6413 15.8253 25.5246 15.9774ZM24.9688 27.0938H25.5V28.1562H24.9688V27.0938ZM29.3868 14.7727C29.4595 14.9618 29.4851 15.1657 29.4614 15.3668C29.4377 15.568 29.3654 15.7604 29.2508 15.9273C29.1361 16.0943 28.9825 16.2308 28.8033 16.3252C28.624 16.4195 28.4245 16.4688 28.222 16.4688C27.9488 16.4681 27.6834 16.3782 27.4661 16.2126C27.2488 16.047 27.0917 15.8149 27.0187 15.5517L25.6654 10.625H27.7917L29.3868 14.7727ZM6.375 2.125H27.625V9.5625H6.375V2.125ZM4.74937 15.9275C4.63329 15.7612 4.56011 15.5687 4.53636 15.3672C4.51261 15.1658 4.53902 14.9615 4.61324 14.7727L6.20832 10.625H8.33465L6.98129 15.5517C6.90827 15.8149 6.75115 16.047 6.53389 16.2126C6.31664 16.3782 6.05117 16.4681 5.77801 16.4688C5.57524 16.4702 5.37525 16.4216 5.1958 16.3272C5.01635 16.2328 4.863 16.0955 4.74937 15.9275ZM6.375 17.4515C6.77946 17.3432 7.14677 17.1267 7.4375 16.8254V28.1562H6.375V17.4515ZM10.625 31.875H2.125V29.2188H10.625V31.875ZM11.1562 28.1562H8.5V21.25H12.75V31.875H11.6875V28.6875C11.6875 28.6177 11.6738 28.5486 11.6471 28.4842C11.6204 28.4197 11.5813 28.3611 11.5319 28.3118C11.4826 28.2625 11.424 28.2233 11.3596 28.1967C11.2951 28.17 11.226 28.1562 11.1562 28.1562ZM13.8125 27.0938H14.3438V28.6875C14.3437 28.7573 14.3575 28.8264 14.3842 28.8908C14.4108 28.9553 14.45 29.0139 14.4993 29.0632C14.5486 29.1125 14.6072 29.1517 14.6717 29.1783C14.7361 29.205 14.8052 29.2188 14.875 29.2188H15.9375V31.875H13.8125V27.0938ZM31.875 31.875H23.375V29.2188H31.875V31.875Z" fill="#FF2222"/>
<path d="M20.7188 6.375H20.1424C20.031 5.723 19.72 5.12164 19.2523 4.65393C18.7846 4.18623 18.1832 3.87523 17.5312 3.76387V3.1875C17.5312 3.0466 17.4753 2.91148 17.3757 2.81185C17.276 2.71222 17.1409 2.65625 17 2.65625C16.8591 2.65625 16.724 2.71222 16.6243 2.81185C16.5247 2.91148 16.4688 3.0466 16.4688 3.1875V3.76387C15.8168 3.87523 15.2154 4.18623 14.7477 4.65393C14.28 5.12164 13.969 5.723 13.8576 6.375H13.2812C13.1404 6.375 13.0052 6.43097 12.9056 6.5306C12.806 6.63023 12.75 6.76535 12.75 6.90625C12.7506 7.46964 12.9747 8.00977 13.3731 8.40815C13.7715 8.80652 14.3116 9.03061 14.875 9.03125H19.125C19.6884 9.03061 20.2285 8.80652 20.6269 8.40815C21.0253 8.00977 21.2494 7.46964 21.25 6.90625C21.25 6.76535 21.194 6.63023 21.0944 6.5306C20.9948 6.43097 20.8596 6.375 20.7188 6.375ZM17 4.78125C17.471 4.78186 17.9285 4.93863 18.3008 5.22702C18.6732 5.51541 18.9394 5.91914 19.0578 6.375H14.9422C15.0606 5.91914 15.3268 5.51541 15.6992 5.22702C16.0715 4.93863 16.529 4.78186 17 4.78125ZM19.125 7.96875H14.875C14.6885 7.96865 14.5054 7.91951 14.3439 7.82627C14.1825 7.73302 14.0484 7.59895 13.9551 7.4375H20.0449C19.9516 7.59895 19.8175 7.73302 19.6561 7.82627C19.4946 7.91951 19.3115 7.96865 19.125 7.96875Z" fill="#FF2222"/>
<path d="M13.0447 5.22327C13.1174 5.17476 13.1771 5.10903 13.2184 5.03192C13.2597 4.95481 13.2813 4.86871 13.2812 4.78125V3.1875H12.2188V4.47788C12.0502 4.56391 11.8718 4.62916 11.6875 4.67219V3.1875H10.625V4.67219C10.4407 4.62915 10.2623 4.56391 10.0938 4.47788V3.1875H9.03125V4.78125C9.03125 4.86871 9.05284 4.95481 9.09411 5.03192C9.13538 5.10903 9.19505 5.17476 9.26782 5.22327C9.67658 5.49621 10.1396 5.67743 10.625 5.75448V9.03125H11.6875V5.75448C12.1729 5.67743 12.6359 5.49621 13.0447 5.22327Z" fill="#FF2222"/>
<path d="M22.8436 2.65625C22.3264 2.65628 21.8269 2.84494 21.4388 3.18687C21.0508 3.52879 20.8007 4.00052 20.7355 4.51362C20.6704 5.02672 20.7946 5.54597 21.0848 5.97406C21.3751 6.40214 21.8116 6.70967 22.3124 6.839V9.03125H23.3749V6.839C23.8757 6.70967 24.3121 6.40214 24.6024 5.97406C24.8926 5.54597 25.0168 5.02672 24.9517 4.51362C24.8865 4.00052 24.6364 3.52879 24.2484 3.18687C23.8603 2.84494 23.3608 2.65628 22.8436 2.65625ZM22.8436 5.84375C22.6335 5.84375 22.428 5.78144 22.2533 5.66469C22.0786 5.54794 21.9424 5.382 21.862 5.18785C21.7816 4.9937 21.7605 4.78007 21.8015 4.57397C21.8425 4.36786 21.9437 4.17854 22.0923 4.02995C22.2409 3.88136 22.4302 3.78016 22.6363 3.73917C22.8424 3.69817 23.0561 3.71921 23.2502 3.79963C23.4444 3.88005 23.6103 4.01623 23.727 4.19096C23.8438 4.36568 23.9061 4.57111 23.9061 4.78125C23.9058 5.06294 23.7937 5.33301 23.5946 5.5322C23.3954 5.73138 23.1253 5.84343 22.8436 5.84375Z" fill="#FF2222"/>
</svg>

<svg width="34" height="34" fill="none" xmlns="http://www.w3.org/2000/svg"><path d="M32.406 28.156h-3.718V17.484a2.31 2.31 0 001.69-3.092l-1.69-4.397V1.594a.531.531 0 00-.532-.532H5.844a.531.531 0 00-.532.532v8.4l-1.69 4.398a2.31 2.31 0 001.69 3.092v10.672H1.595a.531.531 0 00-.532.532v3.718a.532.532 0 00.532.532h30.812a.532.532 0 00.532-.532v-3.718a.53.53 0 00-.532-.532zm-5.843 0v-11.33c.29.3.658.517 1.062.625v10.705h-1.063zm-4.25.532v3.187h-2.125v-3.719h1.062a.53.53 0 00.531-.531v-1.594a.531.531 0 00-.531-.531h-3.188a.531.531 0 00-.53.531v1.594a.531.531 0 00.53.531h1.063v3.719H17v-3.188a.53.53 0 00-.531-.53h-1.063v-1.595a.529.529 0 00-.531-.53h-1.063v-8.55a2.309 2.309 0 001.313-.79 2.29 2.29 0 001.781.84h.188a2.288 2.288 0 001.78-.84c.077.092.161.178.251.258v1.644a2.659 2.659 0 00-2.656 2.656.533.533 0 00.531.531h5.313a.529.529 0 00.53-.531 2.659 2.659 0 00-2.655-2.656v-1.111c.154.032.311.048.469.048h.166a2.305 2.305 0 001.802-.864 2.302 2.302 0 001.805.864h.102c.334 0 .664-.07.968-.21v8.71h-1.063a.53.53 0 00-.53.532v1.593h-1.063a.532.532 0 00-.532.532zm-3.72-1.594v-.532h2.126v.532h-2.125zM8.264 14.893l1.173-4.268h2.156l-.79 4.8a1.243 1.243 0 01-1.232 1.044h-.102a1.248 1.248 0 01-1.204-1.576zM8.5 17.32c.304.14.634.21.968.21h.102a2.3 2.3 0 001.805-.864 2.306 2.306 0 001.375.825v2.695H8.5V17.32zm4.677-.852a1.248 1.248 0 01-1.231-1.451l.724-4.393h2.175l-.256 4.664a1.248 1.248 0 01-1.246 1.18h-.166zm4.822-.39a1.237 1.237 0 01-.905.39h-.188a1.25 1.25 0 01-1.245-1.313l.248-4.531h2.182l.248 4.528v.003a1.233 1.233 0 01-.34.923zm1.412-.79l-.256-4.664h2.175l.724 4.393a1.248 1.248 0 01-1.231 1.45h-.166a1.248 1.248 0 01-1.246-1.179zm.776 4.367a1.597 1.597 0 011.503 1.063h-4.068a1.597 1.597 0 011.503-1.063h1.063zm5.338-3.679a1.239 1.239 0 01-.992.492h-.104a1.244 1.244 0 01-1.23-1.045l-.792-4.799h2.157l1.172 4.265v.003a1.24 1.24 0 01-.211 1.084zm-.556 11.117h.531v1.062h-.531v-1.062zm4.418-12.321a1.248 1.248 0 11-2.368.779l-1.354-4.927h2.127l1.595 4.148zM6.375 2.125h21.25v7.438H6.375V2.125zM4.749 15.928a1.23 1.23 0 01-.136-1.155l1.595-4.148h2.127L6.98 15.552a1.252 1.252 0 01-1.785.775 1.23 1.23 0 01-.447-.4zm1.626 1.523a2.305 2.305 0 001.063-.626v11.331H6.375V17.452zm4.25 14.424h-8.5v-2.656h8.5v2.656zm.531-3.719H8.5V21.25h4.25v10.625h-1.063v-3.188a.53.53 0 00-.53-.53zm2.656-1.062h.532v1.593a.529.529 0 00.531.532h1.063v2.656h-2.126v-4.781zm18.063 4.781h-8.5v-2.656h8.5v2.656z" fill="#F22"/><path d="M20.719 6.375h-.577a3.195 3.195 0 00-2.61-2.611v-.576a.531.531 0 10-1.063 0v.576a3.195 3.195 0 00-2.611 2.611h-.577a.531.531 0 00-.531.531 2.127 2.127 0 002.125 2.125h4.25a2.127 2.127 0 002.125-2.125.531.531 0 00-.531-.531zM17 4.781a2.129 2.129 0 012.058 1.594h-4.116A2.129 2.129 0 0117 4.781zm2.125 3.188h-4.25a1.063 1.063 0 01-.92-.532h6.09a1.064 1.064 0 01-.92.532zm-6.08-2.746a.532.532 0 00.236-.442V3.188H12.22v1.29a2.339 2.339 0 01-.531.194V3.188h-1.063v1.484a2.337 2.337 0 01-.531-.194v-1.29H9.03V4.78a.531.531 0 00.237.442c.409.273.872.454 1.357.531V9.03h1.063V5.754a3.406 3.406 0 001.357-.53zm9.799-2.567a2.125 2.125 0 00-.532 4.183v2.192h1.063V6.84a2.125 2.125 0 00-.531-4.183zm0 3.188a1.063 1.063 0 110-2.125 1.063 1.063 0 010 2.125z" fill="#F22"/></svg>
